X:1
T:Title
%%score { ( 1 3 ) | ( 2 4 ) }
L:1/8
M:4/4
K:Bb
V:1 treble nm="Grand Piano"
V:3 treble 
V:2 bass 
V:4 bass 
V:1
 z4 z2[Q:1/4=108] [B,D][CE] | [DF]4 [Fd]4 | [=Ec]2 [EG]4 [E^F][EG] | [EA]4 [Ec]4 | %4
 [DB]2 [DF]4 [_D=E][=DF] | [EG]2 [GB]2 [FA]2 [EG]2 | [DF]2 [DB]2 [EA]2 [FB]2 | z4 [=Ec]4 | %8
 c6[K:bass] z2[K:treble] | [DF]4 [Fd]4 | [=Ec]2 [EG]4 [E^F][EG] | [EA]4 [Ec]4 | %12
 [DB]2 [DF]4 [_D=E][=DF] | [EG]2 [^FA]2 [GB]2 [G=B]2 | [Gc]2 [Gd]2 [Ge]2 [Gc]2 | [FB]4 [EA]4 | %16
[M:3/4] [DB]6 |] %17
V:2
 z4 z2 [B,,F,][B,,F,] | [B,,B,]4 [B,,B,]4 | [C,B,]2 [C,C]4 [C,C][C,C] | [F,C]4 [F,A,]4 | %4
 [B,,B,]2 [B,,B,]4 [B,,B,][B,,B,] | [E,B,]2 [E,E]2 [E,E]2 [E,B,]2 | %6
 [B,,B,]2 [B,,F,]2 [C,F,]2 [D,B,]2 | [C,B,]4 G,2 z2 | A,2 z2 F,2 z2 | [B,,B,]4 [B,,B,]4 | %10
 [C,B,]2 [C,C]4 [C,C][C,C] | [F,C]4 [F,A,]4 | [B,,B,]2 [B,,B,]4 [B,,B,][B,,B,] | %13
 [E,B,]2 [D,D]2 [G,D]2 [F,D]2 | [E,C]2 [D,=B,]2 [C,C]2 [E,C]2 | [F,D]4 [F,C]4 |[M:3/4] [B,,B,]6 |] %17
V:3
 x8 | x8 | x8 | x8 | x8 | x8 | x8 | [=Ed]4 z2 B,2 | z[K:bass] G, A,4 [D,F,B,D][K:treble][CE] | x8 | %10
 x8 | x8 | x8 | x8 | x8 | x8 |[M:3/4] x6 |] %17
V:4
 x8 | x8 | x8 | x8 | x8 | x8 | x8 | z4 C,4 | [F,E]3- [F,G,E-] E-[E,E]B,,[B,,C,F,] | x8 | x8 | x8 | %12
 x8 | x8 | x8 | x8 |[M:3/4] x6 |] %17

